X:113
T:Haul 'Er Away (b)
M:6/8
L:1/8
Q:1/4=3D100
K:Am
GAE GAE|GFE  D2E |AAA A2G|AAA A2B|
c2A B2G|AGF (ED)C|AAA A2G|AAA A3 ||
